frontend/public/icons/music-double-note-add.svg

<svg width="24" height="24" viewBox="0 0 24 24" fill="none" xmlns="http://www.w3.org/2000/svg">
<path d="M17 6.5H20M23 6.5H20M20 6.5V3.5M20 6.5V9.5" stroke="black" stroke-width="1.5" stroke-linecap="round" stroke-linejoin="round"/>
<path d="M6 15.9999V4.99992L14 4" stroke="black" stroke-width="1.5" stroke-linecap="round" stroke-linejoin="round"/>
<path d="M15 14V10" stroke="black" stroke-width="1.5" stroke-linecap="round" stroke-linejoin="round"/>
<path d="M12 19H13C14.1046 19 15 18.1046 15 17V14H12C10.8954 14 10 14.8954 10 16V17C10 18.1046 10.8954 19 12 19Z" stroke="black" stroke-width="1.5" stroke-linecap="round" stroke-linejoin="round"/>
<path d="M3 21H4C5.10457 21 6 20.1046 6 19V16H3C1.89543 16 1 16.8954 1 18V19C1 20.1046 1.89543 21 3 21Z" stroke="black" stroke-width="1.5" stroke-linecap="round" stroke-linejoin="round"/>
</svg>

<svg xmlns="http://www.w3.org/2000/svg" width="24" height="24" fill="none" viewBox="0 0 24 24">
  <path stroke="#131927" stroke-linecap="round" stroke-linejoin="round" stroke-width="1.5" d="M17 6.5h3m3 0h-3m0 0v-3m0 3v3M6 16V5l8-1m1 10v-4m-3 9h1a2 2 0 0 0 2-2v-3h-3a2 2 0 0 0-2 2v1a2 2 0 0 0 2 2Zm-9 2h1a2 2 0 0 0 2-2v-3H3a2 2 0 0 0-2 2v1a2 2 0 0 0 2 2Z"/>
</svg>
